X: 24395
T: Lovely Nancy
R: waltz
M: 3/4
K: Fdorian
K: EbMaj
|:G>F|E2 E2 E-E/F/4G/4|[D2F2] F2 [DF]- [D/F/]G/4A/4|[E2G2] [Ee]cBG|[E2G2] [D2F2] G>F|
E2 E2 E-E/F/4G/4|[E2G2] [D2F2] [Ee] [Ec]|[E2B2]>c BG [D2F2]>G|E4:|
|:G>A|[E2B2] B2 [Ee]c|[A2c2] [G2B2] G>A|[E2B2] B2 [Ee]G|[E2G2] [D2F2] [DG]>F|
E2 E2 E- E/F/4G/4|[C2E2G2] F2 [CEA]- [C/E/A/]B/4c/4|[EGB]>[Ac] (G2B2] [A,DF]>[B,G]|[G,2E2]:|

